X: 13388
T: Flick It Up And Catch It
R: reel
M: 4/4
K: Adorian
|:GA2 GA2 GA|B2 ABcB AG|GA2 GA2 GA|B2 ABdB AG|
GA2 GA2 GA|B2 ABcB AG|GA (3AAA BGGA|z3:|
|:Bz ff>ed B2|cz ee>dB A2|Bz ff>ed B2|f2ef gfed|
Bz ff>ed B2|cz ee>dB A2|Bz ff>ed B2|f2ef gfed:|
|:GA2 GA2 GA|B2 ABcB AG|GA2 GA2 GA|B2 ABdB AG|
GA2 GA2 GA|B2 ABcB AG|GA (3AAA BGGA|z3:|
|:Bz ff>ed B2|cz ee>dB A2|Bz ff>ed B2|f2ef gfed|
Bz ff>ed B2|cz ee>dB A2|Bz ff>ed B2|f2ef gfed:|
FAAB A2 FG|ABcB AGFA|AB A2 gfed|BAG F2 AAB|
FAAB A2 FG|ABcB AGFA|AB A2 gfed|BAG F2 AAB|
e2 f2 g2 f2|efga gfef|g2 g2e2 f2|g2 f2 efga|gfef g2 g2|
|:GA2 GA2 GA|B2 ABcB AG|GA2 GA2 GA|B2 ABdB AG|
GA2 GA2 GA|B2 ABcB AG|GA (3AAA BGGA|z3:|

